X: 351
T: 7.e La Marche espagnolle
T: la Marche Espagnolle
B: Robert Landrin "Potpourri fran\,cois des contre-danse ancienne tel quil se danse chez la Reine ..." 1760 p.35 #1 dance 11 #7
S: http://memory.loc.gov/cgi-bin/query/D?musdibib:2:./temp/~ammem_EbRS:
Z: 2014 John Chambers <jc:trillian.mit.edu>
M: 6/8
L: 1/8
K: D
% - - - - - - - - - - - - - - - - - - - - - - - - -
d2A |\
F2D ABc | d2A d2A | F2D ED^C | D3 :|\
|: "4.F."F2G | A2A ABc |
B2G G2A | B2B Bcd | A3 F2G |\
A2A AGF | G2E EFG | FED EDC | HD3 :|
% - - - - - - - - - - - - - - - - - - - - - - - - -

%%sep 1 1 500
%%sep 1 1 500
